vinfonet2025/img/stats.svg

<svg xmlns="http://www.w3.org/2000/svg" width="512" height="512" style="shape-rendering:geometricPrecision;text-rendering:geometricPrecision;image-rendering:optimizeQuality;fill-rule:evenodd;clip-rule:evenodd"><path d="M107.5 64.5a11536 11536 0 0 1 263-.5q9.25 3.25 12.5 12.5.75 153.5.5 307a7216 7216 0 0 0-206 1.5q-10.529 3.526-15.5 13.5a459 459 0 0 0-4 36 17.8 17.8 0 0 1-5.5 4.5q-8.854.005-13 7.5-8.549-3.298-11.5-12l-1-351q-1.672-17.923-19.5-19m206 40q25.52-2.223 29.5 23a961 961 0 0 1-1 86q-10.78 24.764-35.5 13.5-9.777-7.303-10.5-19.5a961 961 0 0 1 1-86q4.529-12.276 16.5-17m-64 32q25.52-2.223 29.5 23a389.6 389.6 0 0 1-1 54q-10.78 24.764-35.5 13.5-9.777-7.303-10.5-19.5a389.6 389.6 0 0 1 1-54q4.529-12.276 16.5-17m-64 32q31.083-.414 30 31 2.292 22.197-18 30.5-21.159 3.549-28.5-16.5-3.303-15.64 1-31 5.238-9.999 15.5-14m-10 99q80.002-.25 160 .5 6 3.5 0 7-80 1-160 0-5.879-3.74 0-7.5m0 32q80.002-.25 160 .5 6 3.5 0 7-80 1-160 0-5.879-3.74 0-7.5m0 32q80.002-.25 160 .5 6 3.5 0 7-80 1-160 0-5.879-3.74 0-7.5" style="opacity:.993"/><path d="M98.5 64.5q2.826 1.323 4 4.5a102 102 0 0 0 12 4 17.8 17.8 0 0 1 4.5 5.5q.75 20.494.5 41-11.011.25-22-.5-6.75-2.75-9.5-9.5-1-16.5 0-33 2.945-8.184 10.5-12" style="opacity:.971"/><path d="M313.5 111.5q14.79-3.225 21.5 10 1 46 0 92-4.21 10.48-15.5 10-11.29.48-15.5-10a2115 2115 0 0 1 0-92q3.033-6.78 9.5-10" style="opacity:.984"/><path d="M249.5 143.5q14.79-3.225 21.5 10 1 30 0 60-6.71 13.473-21.5 9.5-6.75-2.75-9.5-9.5-1-30 0-60 3.033-6.78 9.5-10" style="opacity:.977"/><path d="M185.5 175.5q14.79-3.225 21.5 10 1 14 0 28-6.71 13.473-21.5 9.5-6.75-2.75-9.5-9.5a196 196 0 0 1 0-28q3.033-6.78 9.5-10" style="opacity:.96"/><path d="M177.5 391.5q118-.25 236 .5 6.75 2.75 9.5 9.5 1 16.5 0 33-3.25 9.25-12.5 12.5-131.5 1-263 0 17.75-1.75 19.5-19.5l1-26q3.033-6.78 9.5-10" style="opacity:.995"/></svg>

<?xml version="1.0" encoding="UTF-8"?>
<!DOCTYPE svg PUBLIC "-//W3C//DTD SVG 1.1//EN" "http://www.w3.org/Graphics/SVG/1.1/DTD/svg11.dtd">
<svg xmlns="http://www.w3.org/2000/svg" version="1.1" width="512px" height="512px" style="shape-rendering:geometricPrecision; text-rendering:geometricPrecision; image-rendering:optimizeQuality; fill-rule:evenodd; clip-rule:evenodd" xmlns:xlink="http://www.w3.org/1999/xlink">
<g><path style="opacity:0.993" fill="#000000" d="M 107.5,64.5 C 194.999,63.3343 282.666,63.1676 370.5,64C 376.667,66.1667 380.833,70.3333 383,76.5C 383.5,178.833 383.667,281.166 383.5,383.5C 314.802,383.02 246.135,383.52 177.5,385C 170.481,387.351 165.314,391.851 162,398.5C 160.19,410.473 158.856,422.473 158,434.5C 156.457,436.378 154.624,437.878 152.5,439C 146.597,439.003 142.264,441.503 139.5,446.5C 133.801,444.301 129.967,440.301 128,434.5C 127.667,317.5 127.333,200.5 127,83.5C 125.885,71.551 119.385,65.2177 107.5,64.5 Z M 313.5,104.5 C 330.514,103.018 340.347,110.685 343,127.5C 343.95,156.202 343.616,184.868 342,213.5C 334.814,230.009 322.98,234.509 306.5,227C 299.982,222.131 296.482,215.631 296,207.5C 295.05,178.798 295.384,150.132 297,121.5C 300.019,113.316 305.519,107.649 313.5,104.5 Z M 249.5,136.5 C 266.514,135.018 276.347,142.685 279,159.5C 279.916,177.539 279.582,195.539 278,213.5C 270.814,230.009 258.98,234.509 242.5,227C 235.982,222.131 232.482,215.631 232,207.5C 231.084,189.461 231.418,171.461 233,153.5C 236.019,145.316 241.519,139.649 249.5,136.5 Z M 185.5,168.5 C 206.222,168.224 216.222,178.557 215.5,199.5C 217.028,214.298 211.028,224.465 197.5,230C 183.394,232.366 173.894,226.866 169,213.5C 166.798,203.074 167.131,192.74 170,182.5C 173.492,175.834 178.659,171.168 185.5,168.5 Z M 175.5,267.5 C 228.834,267.333 282.168,267.5 335.5,268C 339.5,270.333 339.5,272.667 335.5,275C 282.167,275.667 228.833,275.667 175.5,275C 171.581,272.507 171.581,270.007 175.5,267.5 Z M 175.5,299.5 C 228.834,299.333 282.168,299.5 335.5,300C 339.5,302.333 339.5,304.667 335.5,307C 282.167,307.667 228.833,307.667 175.5,307C 171.581,304.507 171.581,302.007 175.5,299.5 Z M 175.5,331.5 C 228.834,331.333 282.168,331.5 335.5,332C 339.5,334.333 339.5,336.667 335.5,339C 282.167,339.667 228.833,339.667 175.5,339C 171.581,336.507 171.581,334.007 175.5,331.5 Z"/></g>
<g><path style="opacity:0.971" fill="#000000" d="M 98.5,64.5 C 100.384,65.3816 101.717,66.8816 102.5,69C 106.425,70.584 110.425,71.9173 114.5,73C 116.378,74.5429 117.878,76.3762 119,78.5C 119.5,92.1626 119.667,105.829 119.5,119.5C 112.159,119.666 104.826,119.5 97.5,119C 93,117.167 89.8333,114 88,109.5C 87.3333,98.5 87.3333,87.5 88,76.5C 89.9635,71.0437 93.4635,67.0437 98.5,64.5 Z"/></g>
<g><path style="opacity:0.984" fill="#000000" d="M 313.5,111.5 C 323.36,109.35 330.527,112.683 335,121.5C 335.667,152.167 335.667,182.833 335,213.5C 332.193,220.487 327.027,223.82 319.5,223.5C 311.973,223.82 306.807,220.487 304,213.5C 303.333,182.833 303.333,152.167 304,121.5C 306.022,116.98 309.189,113.647 313.5,111.5 Z"/></g>
<g><path style="opacity:0.977" fill="#000000" d="M 249.5,143.5 C 259.36,141.35 266.527,144.683 271,153.5C 271.667,173.5 271.667,193.5 271,213.5C 266.527,222.482 259.36,225.649 249.5,223C 245,221.167 241.833,218 240,213.5C 239.333,193.5 239.333,173.5 240,153.5C 242.022,148.98 245.189,145.647 249.5,143.5 Z"/></g>
<g><path style="opacity:0.96" fill="#000000" d="M 185.5,175.5 C 195.36,173.35 202.527,176.683 207,185.5C 207.667,194.833 207.667,204.167 207,213.5C 202.527,222.482 195.36,225.649 185.5,223C 181,221.167 177.833,218 176,213.5C 175.333,204.167 175.333,194.833 176,185.5C 178.022,180.98 181.189,177.647 185.5,175.5 Z"/></g>
<g><path style="opacity:0.995" fill="#000000" d="M 177.5,391.5 C 256.167,391.333 334.834,391.5 413.5,392C 418,393.833 421.167,397 423,401.5C 423.667,412.5 423.667,423.5 423,434.5C 420.833,440.667 416.667,444.833 410.5,447C 322.833,447.667 235.167,447.667 147.5,447C 159.333,445.833 165.833,439.333 167,427.5C 167.333,418.833 167.667,410.167 168,401.5C 170.022,396.98 173.189,393.647 177.5,391.5 Z"/></g>
</svg>
